!!! OTL: Berkowitz627
!!! Chapter: 1
!!! Section: V
!!! Page: 160
!!! Mode: 
!!! Encoder: AR
**kern
*staff1
=1-
!!pagebreak:original
*clefF4
*k[]
*C:
*M4/4
4BB-/
4A\
4F#\
4A\
=2
4BB-/
4A\
2F#\
=3
4D\
4Fn\
4c#\
4Bn\
=4
4B-\
4BBn/
2G#\
=5
4Gn\
4GG#/
4BB/
4Gn\
=6
4E\
4F#\
2D\
=7
!!linebreak:original
4C/
4D#\
4E\
4F#\
=8
4G\
4B-\
2A\
=9
4Bn\
4C#/
4E\
4C#/
=10
4B\
4Cn/
2E-\
=11
4A\
4G#\
4F\
4En\
=12
!!linebreak:original
4C#/
4E\
2cn\
=13
4A\
4BB-/
4D-\
4BB-/
=14
4A\
4BB-/
2D-\
=15
4G-\
4F\
4Dn\
4C#/
=16
4BB/
4A\
2BB/
==
*-
